X:2893
T:J\"amtlandsk brudmarsch
C:anon.
O:Sweden
A:J\"amtland
R:Bridal march
Z:Transcribed by Frank Nordberg - http://www.musicaviva.com
F:http://abc.musicaviva.com/tunes/sweden/jamtlandsk-brudmarsch.abc
M:C
L:1/4
Q:1/4=172
K:Dm
A|"Dm"Ad"C9"dd|"Dm"de"G7"fe/d/|"A"^c>e"E7"ee|"A"ef"A7"gf/e/|
"Dm"f2dd|"Dm"de"Gm7"fe/d/|"A"e>A"A7"AA|"Dm"A3"Am"A|
"Dm"A>d"C9"dd|"Dm"de"G7"fe/d/|"A"^ce"E7"ee|"A"e>f"A7"gf/e/|
"Dm"fafe/d/|"Gm6"eg"Am"ed/c/|"Dm"d2"C9"de/f/|"Dm"d2"C7"c/d/f/g/||
"F"a2aa|"F"ag/a/ba|"G7"a>ggg|"C"g3"A7"e|
"Dm"f2ff|"Dm"fe/f/af|"A"f>e"E7"ee|"A"e2 "C7"z c|
"F"a2aa|"F"ag/a/ba|"G7"a>ggg|"C"g3"A7"e|
"Dm"fafe/d/|"Gm6"eg"Am"ed/c/|"Dm"d2"C9"de/f/|"Dm"d4|]
W:
W:
W:  From Musica Viva - http://www.musicaviva.com
W:  the Internet center for free sheet music downloads.
